src/assets/icons/directions-alt.svg

<svg width="14" height="14" viewBox="0 0 14 14" fill="none" xmlns="http://www.w3.org/2000/svg">
<g id="directions-alt">
<g clip-path="url(#clip0_156_4536)">
<g id="Vector">
<path d="M9.64843 9.26542C9.33512 9.26542 9.08083 9.01089 9.08083 8.69727V7.15266H5.72884L6.43734 7.85639C6.65984 8.07759 6.66135 8.43742 6.44037 8.66013C6.32836 8.76997 6.18305 8.82679 6.03699 8.82679C5.89245 8.82679 5.7479 8.77225 5.6374 8.66165L3.96403 7.00017C3.85282 6.89643 3.78325 6.74855 3.78325 6.5845C3.78325 6.42082 3.85252 6.27323 3.96329 6.16952L5.6374 4.50657C5.86066 4.28461 6.22014 4.28764 6.44037 4.5096C6.66135 4.73231 6.65984 5.09214 6.43734 5.31334L5.72999 6.01635H9.64843C9.96175 6.01635 10.216 6.27089 10.216 6.5845V8.69727C10.216 9.01089 9.96175 9.26542 9.64843 9.26542Z" fill="black"/>
<path fill-rule="evenodd" clip-rule="evenodd" d="M6.99962 14C6.63484 14 6.29126 13.8576 6.0347 13.6008L0.398832 7.95942C0.141521 7.70186 0 7.35869 0 6.99356C0 6.62843 0.141521 6.28451 0.398832 6.0277L6.0347 0.386343C6.54933 -0.128781 7.45067 -0.128781 7.96529 0.386343L13.6012 6.0277C13.8585 6.28527 14 6.62843 14 6.99356C14 7.35869 13.8577 7.70261 13.6012 7.95942L7.96529 13.6008C7.70798 13.8576 7.36515 14 6.99962 14ZM6.99962 1.12191C6.96329 1.12191 6.89443 1.131 6.83691 1.18857L1.20104 6.82993C1.14352 6.88751 1.13444 6.95644 1.13444 6.9928C1.13444 7.02916 1.14352 7.0981 1.20104 7.15567L6.83691 12.797C6.95194 12.9122 7.04654 12.9122 7.16233 12.797L12.7982 7.15567C12.8557 7.0981 12.8648 7.02916 12.8648 6.9928C12.8648 6.95644 12.8557 6.88751 12.7982 6.82993L7.16233 1.18857C7.10482 1.131 7.03595 1.12191 6.99962 1.12191Z" fill="black"/>
</g>
</g>
</g>
<defs>
<clipPath id="clip0_156_4536">
<rect width="14" height="14" fill="white"/>
</clipPath>
</defs>
</svg>

<svg xmlns="http://www.w3.org/2000/svg" fill="none" viewBox="0 0 14 14"><g fill="#000" clip-path="url(#a)"><path d="M9.648 9.265a.57.57 0 0 1-.567-.568V7.153H5.729l.708.703a.569.569 0 0 1-.8.806L3.964 7a.567.567 0 0 1 0-.83l1.673-1.663a.567.567 0 1 1 .8.806l-.707.703h3.918c.314 0 .568.255.568.569v2.112a.57.57 0 0 1-.568.568"/><path fill-rule="evenodd" d="M7 14c-.365 0-.709-.142-.965-.4L.399 7.96A1.36 1.36 0 0 1 0 6.993c0-.366.142-.71.399-.966L6.035.386c.514-.515 1.416-.515 1.93 0l5.636 5.642c.257.257.399.6.399.966 0 .365-.142.709-.399.965l-5.636 5.642c-.257.257-.6.399-.965.399M7 1.122a.23.23 0 0 0-.163.067L1.2 6.829a.23.23 0 0 0-.067.164c0 .036.01.105.067.163l5.636 5.641c.115.115.21.115.325 0l5.636-5.641a.23.23 0 0 0 .067-.163.23.23 0 0 0-.067-.163L7.162 1.189A.23.23 0 0 0 7 1.122" clip-rule="evenodd"/></g><defs><clipPath id="a"><path fill="#fff" d="M0 0h14v14H0z"/></clipPath></defs></svg>
